X:1
T:Mazurka
C:traditionell
R:Mazurka
A:Frankreich
%%textfont Helvetica-Narrow 10pt
%%begintext align
B:"Schule fuer Drehleier", Barbara Behringer (anm: verh. Grimm), Der Verlag mit der  Blume, 4.Auflage, Nuernberg 1988
N:dort ganz in C, einstimmig, Seite 66
%%endtext 
F:http://simonwascher.info/
Z:abc transcription Simon Wascher
M:3/4
L:1/8
K:C
Gc |\
e2 c2 Bc | d2 B2 de | f2 df df | e2 c2 Gc |\
e2 c2 Bc | d2 B2 de | f2 df dB | c4 :|
|: ef |\
g2 g2 ag | f2 d2 de | f2 df df | e2 c2 ef |\
g2 g2 ag | f2 d2 de | f2 df dB | c4 :|
%%wordsfont Times-Italic 11pt
W:aus Simon Waschers TradArchiv
